!!!OTL: 崖の上のポニョ
**kern	**text	**kern	**text	**kern	**text	**kern	**text	**text	**kern	**text	**kern	**text	**text
*part6	*part6	*part5	*part5	*part4	*part4	*part3	*part3	*part3	*part2	*part2	*part1	*part1	*part1
*staff6	*staff6	*staff5	*staff5	*staff4	*staff4	*staff3	*staff3	*staff3	*staff2	*staff2	*staff1	*staff1	*staff1
*I"ピアノ	*	*I"ピアノ	*	*I"ピアノ	*	*I"ピアノ	*	*	*I"Piano	*	*I"Melody	*	*
*I'Pno.	*	*I'Pno.	*	*I'Pno.	*	*I'Pno.	*	*	*I'Pno.	*	*I'Pno.	*	*
*clefG2	*	*clefG2	*	*clefG2	*	*clefG2	*	*	*clefG2	*	*clefG2	*	*
*k[b-]	*	*k[b-]	*	*k[b-]	*	*k[b-]	*	*	*k[b-]	*	*k[b-]	*	*
*M4/4	*	*M4/4	*	*M4/4	*	*M4/4	*	*	*M4/4	*	*M4/4	*	*
*met(c)	*	*met(c)	*	*met(c)	*	*met(c)	*	*	*met(c)	*	*met(c)	*	*
*MM121	*	*MM121	*	*MM121	*	*MM121	*	*	*MM121	*	*MM121	*	*
=1	=1	=1	=1	=1	=1	=1	=1	=1	=1	=1	=1	=1	=1
1r	.	1r	.	1r	.	1r	.	.	1r	.	1r	.	.
=2	=2	=2	=2	=2	=2	=2	=2	=2	=2	=2	=2	=2	=2
4.G	.	4.c	.	4.f	.	4.g	.	.	4.cc	pa	1r	.	.
16GLL	.	16cLL	.	16fLL	.	16gLL	.	.	16ccLL	pa	.	.	.
16GJJ	.	16cJJ	.	16fJJ	.	16gJJ	.	.	16ccJJ	la	.	.	.
4.G	.	4.c	.	4.f	.	4.g	.	.	4.cc	pa	.	.	.
16GLL	.	16cLL	.	16fLL	.	16gLL	.	.	16ccLL	pa	.	.	.
16GJJ	.	16cJJ	.	16fJJ	.	16gJJ	.	.	16ccJJ	la	.	.	.
=3	=3	=3	=3	=3	=3	=3	=3	=3	=3	=3	=3	=3	=3
8G	.	8cL	.	8f	.	8g	.	.	8cc	pa	1r	.	.
4r	.	8c	.	4r	.	4r	.	.	4r	.	.	.	.
.	.	8d	.	.	.	.	.	.	.	.	.	.	.
8G	.	8cJ	.	8f	.	8g	.	.	8cc	pa	.	.	.
4r	.	8cL	.	4r	.	4r	.	.	4r	.	.	.	.
.	.	8e-X	.	.	.	.	.	.	.	.	.	.	.
8G	.	8c	.	8e	.	8g	.	.	8cc	pa	.	.	.
8r	.	8enJ	.	8r	.	8r	.	.	8r	.	.	.	.
=4	=4	=4	=4	=4	=4	=4	=4	=4	=4	=4	=4	=4	=4
8f	.	8r	.	8r	.	8r	.	.	4cc	ポ-	4cc	ポ-	.
8r	.	4f	.	4a	.	4cc	pa	.	.	.	.	.	.
8e	.	.	.	.	.	.	.	.	8aL	ニョ	8aL	ニョ	.
8r	.	8f	.	8a	.	8cc	pa	.	[8fJ	ポ	[8fJ	ポ	.
8d	.	8r	.	8r	.	8r	.	.	8fL]	ー	8fL]	ー	.
8r	.	8f	.	8a	.	8cc	pa	.	8c	ニョ	8c	ニョ	.
8c	.	8r	.	8r	.	8r	.	.	8c	ポ	8c	ポ	.
8r	.	8f	.	8a	.	8cc	pa	.	8cJ	ニョ	8cJ	ニョ	.
=5	=5	=5	=5	=5	=5	=5	=5	=5	=5	=5	=5	=5	=5
8B-	.	8r	.	8r	.	8r	.	.	8dL	さ	8dL	さ	.
8r	.	4d	.	4f	.	4b-	pa	.	8f	か	8f	か	.
8B-	.	.	.	.	.	.	.	.	8b-	な	8b-	な	.
8r	.	8d	.	8f	.	8b-	pa	.	8ddJ	の	8ddJ	の	.
8A	.	8r	.	8r	.	8r	.	.	4cc	こ	4cc	こ	.
8r	.	8c	.	8f	.	8a	pa	.	.	.	.	.	.
8A	.	8r	.	8r	.	8r	.	.	8r	.	8r	.	.
8r	.	8c	.	8f	.	8a	pa	.	8a	あ	8a	あ	.
=6	=6	=6	=6	=6	=6	=6	=6	=6	=6	=6	=6	=6	=6
8c	.	8r	.	8r	.	8r	.	.	8b-L	お	8b-L	お	.
8r	.	4e	.	4g	.	4b-	pa	.	8g	い	8g	い	.
8c#X	.	.	.	.	.	.	.	.	8g	う	8g	う	.
8r	.	8e	.	8g	.	8b-	pa	.	8b-J	み	8b-J	み	.
8d	.	8r	.	8r	.	8r	.	.	8a	か	8a	か	.
8r	.	8dL	.	8fL	.	8aL	lu	.	4f	ら	4f	ら	.
8cn	.	8e	.	8g	.	8b-	.	.	.	.	.	.	.
8r	.	8fJ	.	8aJ	.	8ccJ	.	.	8a	や	8a	や	.
=7	=7	=7	=7	=7	=7	=7	=7	=7	=7	=7	=7	=7	=7
8Bn	.	8r	.	8r	.	8r	.	.	8gL	ー	8gL	ー	.
8r	.	4e	.	4g	.	4bn	pa	.	8d	っ	8d	っ	.
8B-X	.	.	.	.	.	.	.	.	8e	て	8e	て	.
8r	.	8e	.	8g	.	8b-X	pa	.	8fJ	き	8fJ	き	.
8cL	.	4c	.	4e	.	4cc	pa	.	4g	た	4g	た	.
8d	.	.	.	.	.	.	.	.	.	.	.	.	.
8e	.	4r	.	4r	.	4r	.	.	4r	.	4r	.	.
8gJ	.	.	.	.	.	.	.	.	.	.	.	.	.
=8	=8	=8	=8	=8	=8	=8	=8	=8	=8	=8	=8	=8	=8
8f	.	8r	.	8r	.	8r	.	.	4cc	ポ	4cc	ポ	.
8r	.	4f	.	4a	.	4cc	pa	.	.	.	.	.	.
8e	.	.	.	.	.	.	.	.	8aL	ニョ	8aL	ニョ	.
8r	.	8f	.	8a	.	8cc	pa	.	[8fJ	ポ	[8fJ	ポ	.
8d	.	8r	.	8r	.	8r	.	.	8fL]	ー	8fL]	ー	.
8r	.	8f	.	8a	.	8cc	pa	.	8c	ニョ	8c	ニョ	.
8c	.	8r	.	8r	.	8r	.	.	8c	ポ	8c	ポ	.
8r	.	8f	.	8a	.	8cc	pa	.	8cJ	ニョ	8cJ	ニョ	.
=9	=9	=9	=9	=9	=9	=9	=9	=9	=9	=9	=9	=9	=9
8B-	.	8r	.	8r	.	8r	.	.	8dL	ふ	8dL	ふ	.
8r	.	4d	.	4f	.	4b-	pa	.	8f	く	8f	く	.
8B-	.	.	.	.	.	.	.	.	8b-	ら	8b-	ら	.
8r	.	8d	.	8f	.	8b-	pa	.	8ddJ	ん	8ddJ	ん	.
8A	.	8r	.	8r	.	8r	.	.	4cc	だ	4cc	だ	.
8r	.	8c	.	8f	.	8a	pa	.	.	.	.	.	.
8A	.	8r	.	8r	.	8r	.	.	8r	.	8r	.	.
8r	.	8c	.	8f	.	8a	pa	.	8a	まん	8a	まん	.
=10	=10	=10	=10	=10	=10	=10	=10	=10	=10	=10	=10	=10	=10
8G	.	8d	.	8f	.	8b-	pa	.	8b-L	ま	8b-L	ま	.
8r	.	8r	.	8r	.	8r	.	.	8g	る	8g	る	.
8r	.	8r	.	8r	.	8r	.	.	8g	お	8g	お	.
8G	.	8d	.	8f	.	8b-	pa	.	8b-J	な	8b-J	な	.
8cL	.	8cL	.	8fL	.	8aL	pa	.	8aL	か	8aL	か	.
8cJ	.	8cJ	.	8fJ	.	8aJ	pa	.	8fJ	の	8fJ	の	.
8r	.	8r	.	8r	.	8r	.	.	8r	.	8r	.	.
8r	.	8r	.	8r	.	8r	.	.	8a	おん	8a	おん	.
=11	=11	=11	=11	=11	=11	=11	=11	=11	=11	=11	=11	=11	=11
8cL	.	8eL	.	8gL	.	8b-L	pa	.	8g	な	8g	な	.
8cJ	.	8gJ	.	8b-J	.	8ccJ	pa	.	4e	の	4e	の	.
8r	.	8r	.	8r	.	8r	.	.	.	.	.	.	.
[8f	.	[8f	.	[8a	.	[8cc	pa	.	[8f	こ	[8f	こ	.
4f]	.	4f]	.	4a]	.	4cc]	.	.	4f]	.	4f]	.	.
4c	.	4r	.	4r	.	4r	.	.	4r	.	4r	.	.
=12	=12	=12	=12	=12	=12	=12	=12	=12	=12	=12	=12	=12	=12
8FL	.	8AL	tun	4r	.	4r	.	.	4r	.	1r	.	.
[8cJ	.	[8fJ	tun	.	.	.	.	.	.	.	.	.	.
2.c]	.	2.f]	.	8fL	.	8aL	tun	.	2ff	lu	.	.	.
.	.	.	.	[8b-J	.	[8gJ	tun	.	.	.	.	.	.
.	.	.	.	2b-]	.	2g]	.	.	.	.	.	.	.
.	.	.	.	.	.	.	.	.	4ee	lu	.	.	.
=13	=13	=13	=13	=13	=13	=13	=13	=13	=13	=13	=13	=13	=13
8FL	.	8AL	tun	4r	.	4r	.	.	4r	.	1r	.	.
[8cJ	.	[8fJ	tun	.	.	.	.	.	.	.	.	.	.
2.c]	.	2.f]	.	8fL	.	8fL	tun	.	2cc	lu	.	.	.
.	.	.	.	[8gJ	.	[8eJ	tun	.	.	.	.	.	.
.	.	.	.	2g]	.	2e]	.	.	.	.	.	.	.
.	.	.	.	.	.	.	.	.	4b-	lu	.	.	.
=14	=14	=14	=14	=14	=14	=14	=14	=14	=14	=14	=14	=14	=14
8FL	.	8AL	tun	4r	.	4r	.	.	4r	.	1r	.	.
[8cJ	.	[8fJ	tun	.	.	.	.	.	.	.	.	.	.
2.c]	.	2.f]	.	8fL	tun	2f	lu	.	2a	lu	.	.	.
.	.	.	.	[8b-J	tun	.	.	.	.	.	.	.	.
.	.	.	.	2b-]	.	.	.	.	.	.	.	.	.
.	.	.	.	.	.	4e	lu	.	4g	lu	.	.	.
=15	=15	=15	=15	=15	=15	=15	=15	=15	=15	=15	=15	=15	=15
8FL	.	1r	.	4r	.	4r	.	.	4r	.	1r	.	.
[8cJ	.	.	.	.	.	.	.	.	.	.	.	.	.
2.c]	.	.	.	8fL	tun	2.c	lu	.	4f	lu	.	.	.
.	.	.	.	[8gJ	tun	.	.	.	.	.	.	.	.
.	.	.	.	2g]	.	.	.	.	4g	lu	.	.	.
.	.	.	.	.	.	.	.	.	4e	lu	.	.	.
=16	=16	=16	=16	=16	=16	=16	=16	=16	=16	=16	=16	=16	=16
8FL	.	4f	ぺー	4f	pon	8r	.	.	4r	.	4f	ぺー	.
8AJ	.	.	.	.	.	4a	pon	.	.	.	.	.	.
8r	.	8cL	タ	4r	.	.	.	.	4cc	pon	8cL	タ	.
8A	.	8fJ	ペ	.	.	4r	.	.	.	.	8fJ	ペ	.
4G	.	4g	タ	4e	pon	.	.	.	4r	.	4g	タ	.
.	.	.	.	.	.	4g	pon	.	.	.	.	.	.
8r	.	4r	.	4r	.	.	.	.	4cc	pon	4r	.	.
8G	.	.	.	.	.	8r	.	.	.	.	.	.	.
=17	=17	=17	=17	=17	=17	=17	=17	=17	=17	=17	=17	=17	=17
4B-	.	4g	ピョー	4e	.	8r	.	.	4r	.	4g	ピョー	.
.	.	.	.	.	.	4g	.	.	.	.	.	.	.
8r	.	8cL	ン	4r	.	.	.	.	4b-	.	8cL	ン	.
8B-	.	8gJ	ピョ	.	.	4r	.	.	.	.	8gJ	ピョ	.
4A	.	4a	ン	4f	.	.	.	.	4r	.	4a	ン	.
.	.	.	.	.	.	4a	.	.	.	.	.	.	.
8r	.	4r	.	4r	.	.	.	.	4cc	.	4r	.	.
8A	.	.	.	.	.	8r	.	.	.	.	.	.	.
=18	=18	=18	=18	=18	=18	=18	=18	=18	=18	=18	=18	=18	=18
4F	.	8.aL	あ	4a	.	8r	.	.	4r	.	8.aL	あ	.
.	.	.	.	.	.	4cc	.	.	.	.	.	.	.
.	.	[16fJk	しー	.	.	.	.	.	.	.	[16fJk	しー	.
8r	.	8fL]	っ	4r	.	.	.	.	4ee-X	.	8fL]	っ	.
8A	.	8aJ	て	.	.	4r	.	.	.	.	8aJ	て	.
4B-	.	8b-L	い	4d	.	.	.	.	4r	.	8b-L	い	.
.	.	8ccJ	い	.	.	4f	.	.	.	.	8ccJ	い	.
4r	.	4dd	な	4r	.	.	.	.	4b-	.	4dd	な	.
.	.	.	.	.	.	8r	.	.	.	.	.	.	.
=19	=19	=19	=19	=19	=19	=19	=19	=19	=19	=19	=19	=19	=19
2B-	.	8.ccL	か	2d-X	woo	2f	woo	.	2g	woo	8.ccL	か	.
.	.	[16aJk	け	.	.	.	.	.	.	.	[16aJk	け	.
.	.	8aL]	ー	.	.	.	.	.	.	.	8aL]	ー	.
.	.	8fJ	ちゃ	.	.	.	.	.	.	.	8fJ	ちゃ	.
4.r	.	4g	お	4r	.	8r	.	.	4cc	pon	4g	お	.
.	.	.	.	.	.	4g	pon	.	.	.	.	.	.
.	.	4r	.	4c	pon	.	.	.	4r	.	4r	.	.
8G	.	.	.	.	.	8r	.	.	.	.	.	.	.
=20	=20	=20	=20	=20	=20	=20	=20	=20	=20	=20	=20	=20	=20
8FL	.	4f	ニー	4f	pon	8r	.	.	4r	.	4f	ニー	.
8AJ	.	.	.	.	.	4a	pon	.	.	.	.	.	.
8r	.	8cL	ギ	4r	.	.	.	.	4cc	pon	8cL	ギ	.
8A	.	8fJ	ニ	.	.	4r	.	.	.	.	8fJ	ニ	.
4G	.	4g	ギ	4e	pon	.	.	.	4r	.	4g	ギ	.
.	.	.	.	.	.	4g	pon	.	.	.	.	.	.
8r	.	4r	.	4r	.	.	.	.	4cc	pon	4r	.	.
8G	.	.	.	.	.	8r	.	.	.	.	.	.	.
=21	=21	=21	=21	=21	=21	=21	=21	=21	=21	=21	=21	=21	=21
4B-	.	4g	ブー	4e	.	8r	.	.	4r	.	4g	ブー	.
.	.	.	.	.	.	4g	.	.	.	.	.	.	.
8r	.	8cL	ン	4r	.	.	.	.	4b-	.	8cL	ン	.
8B-	.	8gJ	ブ	.	.	4r	.	.	.	.	8gJ	ブ	.
4A	.	4a	ン	4f	.	.	.	.	4r	.	4a	ン	.
.	.	.	.	.	.	4a	.	.	.	.	.	.	.
8r	.	4r	.	4r	.	.	.	.	4cc	.	4r	.	.
8A	.	.	.	.	.	8r	.	.	.	.	.	.	.
=22	=22	=22	=22	=22	=22	=22	=22	=22	=22	=22	=22	=22	=22
4F	.	8.aL	お	4a	.	8r	.	.	4r	.	8.aL	お	.
.	.	.	.	.	.	4cc	.	.	.	.	.	.	.
.	.	16fJk	て	.	.	.	.	.	.	.	16fJk	て	.
8r	.	8fL	て	4r	.	.	.	.	4ee-X	.	8fL	て	.
8A	.	8aJ	は	.	.	4r	.	.	.	.	8aJ	は	.
4B-	.	8b-L	い	4d	.	.	.	.	4r	.	8b-L	い	.
.	.	8ccJ	い	.	.	4f	.	.	.	.	8ccJ	い	.
4r	.	4dd	な	4r	.	.	.	.	4b-	.	4dd	な	.
.	.	.	.	.	.	8r	.	.	.	.	.	.	.
=23	=23	=23	=23	=23	=23	=23	=23	=23	=23	=23	=23	=23	=23
4c	.	8.ccL	つ	4e	pa	4g	pa	.	4b-	pa	8.ccL	つ	.
.	.	16aJk	な	.	.	.	.	.	.	.	16aJk	な	.
8r	.	8aL	い	8r	.	8r	.	.	8r	.	8aL	い	.
8c	.	8cJ	じゃ	8e	pa	8g	pa	.	8b-	pa	8cJ	じゃ	.
4F	.	4f	お	8r	.	8r	.	.	2r	.	4f	お	.
.	.	.	.	8fL	lu	8aL	lu	.	.	.	.	.	.
4r	.	4r	.	8e	.	8g	.	.	.	.	4r	.	.
.	.	.	.	8dJ	.	8fJ	.	.	.	.	.	.	.
=24	=24	=24	=24	=24	=24	=24	=24	=24	=24	=24	=24	=24	=24
8cL	.	8r	.	4e	tun	8r	.	.	4r	.	8r	.	.
8cJ	.	8gL	あ	.	.	4g	tun	.	.	.	8gL	あ	.
4r	.	8g	の	4r	.	.	.	.	4b-	tun	8g	の	.
.	.	8gJ	こ	.	.	8g	tun	.	.	.	8gJ	こ	.
8c#XL	.	4g	と	4e	tun	8r	.	.	4r	.	4g	と	.
8c#J	.	.	.	.	.	4g	tun	.	.	.	.	.	.
4r	.	8fL	は	4r	.	.	.	.	4b-	tun	8fL	は	.
.	.	8gJ	ね	.	.	8g	tun	.	.	.	8gJ	ね	.
=25	=25	=25	=25	=25	=25	=25	=25	=25	=25	=25	=25	=25	=25
8AL	.	2a	る	4d	.	8r	.	.	4r	.	2a	る	.
8AJ	.	.	.	.	.	4f	.	.	.	.	.	.	.
4r	.	.	.	4r	.	.	.	.	4a	.	.	.	.
.	.	.	.	.	.	8f	.	.	.	.	.	.	.
8cL	.	2cc	と	4c	.	8r	.	.	4r	.	2cc	と	.
8cJ	.	.	.	.	.	4f	.	.	.	.	.	.	.
4r	.	.	.	4r	.	.	.	.	4a	.	.	.	.
.	.	.	.	.	.	8f	.	.	.	.	.	.	.
=26	=26	=26	=26	=26	=26	=26	=26	=26	=26	=26	=26	=26	=26
8GL	.	8r	.	4B-	.	8r	.	.	4r	.	8r	.	.
8GJ	.	8gL	こ	.	.	4f	.	.	.	.	8gL	こ	.
4r	.	8g	こ	4r	.	.	.	.	4b-	.	8g	こ	.
.	.	8aJ	ろ	.	.	8f	.	.	.	.	8aJ	ろ	.
8B-L	.	4g	も	4d-X	.	8r	.	.	4r	.	4g	も	.
8B-J	.	.	.	.	.	4f	.	.	.	.	.	.	.
4r	.	8fL	お	4r	.	.	.	.	4dd-X	.	8fL	お	.
.	.	8d-XJ	ど	.	.	8f	.	.	.	.	8dJ	ど	.
=27	=27	=27	=27	=27	=27	=27	=27	=27	=27	=27	=27	=27	=27
8FL	.	4c	る	4c	.	8r	.	.	4r	.	4c	る	.
8FJ	.	.	.	.	.	4f	.	.	.	.	.	.	.
4r	.	2a	よ	4r	.	.	.	.	4cc	.	2a	よ	.
.	.	.	.	.	.	8r	.	.	.	.	.	.	.
8AL	.	.	.	4r	.	4r	.	.	4r	.	.	.	.
8AJ	.	.	.	.	.	.	.	.	.	.	.	.	.
4r	.	4r	.	4e	ha	4g	ha	.	4cc#X	ha	4r	.	.
=28	=28	=28	=28	=28	=28	=28	=28	=28	=28	=28	=28	=28	=28
4d	.	8.fL	パー	8.fL	.	4a	.	.	4dd	pa	8.fL	パー	.
.	.	16fJk	ク	16fJk	.	.	.	.	.	.	16fJk	ク	.
8r	.	8fL	パ	8fL	.	8r	.	.	8r	.	8fL	パ	.
8d	.	8fJ	ク	8fJ	.	8a	.	.	8dd	pa	8fJ	ク	.
8cL	.	8ddL	チュッ	8eL	.	8aL	.	.	8ddL	pa	8ddL	チュッ	.
8cJ	.	8ccJ	ギュッ！	8eJ	.	8aJ	.	.	8ccJ	pa	8ccJ	ギュッ！	.
4r	.	4r	.	4r	.	4r	.	.	4r	.	4r	.	.
=29	=29	=29	=29	=29	=29	=29	=29	=29	=29	=29	=29	=29	=29
4B-	.	8.dL	パー	8.dL	.	4f	.	.	4b-	pa	8.dL	パー	.
.	.	16dJk	ク	16dJk	.	.	.	.	.	.	16dJk	ク	.
8r	.	8dL	パ	8dL	.	8r	.	.	8r	.	8dL	パ	.
8B-	.	8dJ	ク	8dJ	.	8f	.	.	8b-	pa	8dJ	ク	.
8B-L	.	8ccL	チュッ	8fL	.	8d-XL	.	.	8b-L	pa	8ccL	チュッ	.
8B-J	.	8b-J	ギュッ！	8fJ	.	8d-J	.	.	8b-J	pa	8b-J	ギュッ！	.
4F	.	4r	.	4r	.	4r	.	.	4r	.	4r	.	.
=30	=30	=30	=30	=30	=30	=30	=30	=30	=30	=30	=30	=30	=30
2f	.	4r	.	8r	.	8r	.	.	4r	.	4r	.	.
.	.	.	.	8fL	.	8aL	tu	.	.	.	.	.	.
.	.	4a	あ	8a	.	8cc	tu	.	4r	.	4a	あ	.
.	.	.	.	8fJ	.	8aJ	tun	.	.	.	.	.	.
2e	.	4b-	の	8r	.	8r	.	.	4b-	lu	4b-	の	.
.	.	.	.	8eL	.	8gL	tu	.	.	.	.	.	.
.	.	4cc	こ	8a	.	8cc	tu	.	4f	lu	4cc	こ	.
.	.	.	.	8eJ	.	8gJ	tun	.	.	.	.	.	.
=31	=31	=31	=31	=31	=31	=31	=31	=31	=31	=31	=31	=31	=31
2d	.	4f	が	8r	.	8r	.	.	2dd	lu	4f	が	.
.	.	.	.	8dL	.	8aL	.	.	.	.	.	.	.
.	.	4f	だ	8f	.	8cc	.	.	.	.	4f	だ	.
.	.	.	.	8dJ	.	8aJ	.	.	.	.	.	.	.
2c	.	4g	い	8r	.	8r	.	.	2cc	lu	4g	い	.
.	.	.	.	8cL	.	8aL	.	.	.	.	.	.	.
.	.	4a	す	8f	.	8cc	.	.	.	.	4a	す	.
.	.	.	.	8cJ	.	8aJ	.	.	.	.	.	.	.
=32	=32	=32	=32	=32	=32	=32	=32	=32	=32	=32	=32	=32	=32
8B-L	.	2.g	き	2.d	woo	2.g	woo	.	2.b-	woo	2.g	き	.
8f	.	.	.	.	.	.	.	.	.	.	.	.	.
8g	.	.	.	.	.	.	.	.	.	.	.	.	.
8b-J	.	.	.	.	.	.	.	.	.	.	.	.	.
8b-	.	.	.	.	.	.	.	.	.	.	.	.	.
4cc	.	.	.	.	.	.	.	.	.	.	.	.	.
.	.	4r	.	4r	.	8r	.	.	8r	.	4r	.	.
8g	.	.	.	.	.	8r	.	.	8r	.	.	.	.
=33	=33	=33	=33	=33	=33	=33	=33	=33	=33	=33	=33	=33	=33
8c	.	1r	.	8cL	ま	8f	.	.	8b-	da	1r	.	.
4c	.	.	.	8f	っ	4f	.	.	4b-	da	.	.	.
.	.	.	.	8f	か	.	.	.	.	.	.	.	.
4c	.	.	.	8gJ	っ	4f	.	.	4b-	da	.	.	.
.	.	.	.	4g	か	.	.	.	.	.	.	.	.
4c	.	.	.	.	.	4f	.	.	4b-	da	.	.	.
.	.	.	.	4a	の	.	.	.	.	.	.	.	.
8c	.	.	.	.	.	8e	.	.	8b-	da	.	.	.
=34	=34	=34	=34	=34	=34	=34	=34	=34	=34	=34	=34	=34	=34
8f	.	8r	.	4cc	ポー	8r	.	.	8r	.	4cc	ポー	.
8r	.	4f	.	.	.	4a	.	.	4cc	pa	.	.	.
8e	.	.	.	8aL	ニョ	.	.	.	.	.	8aL	ニョ	.
8r	.	8f	.	[8fJ	ポ	8a	.	.	8cc	pa	[8fJ	ポ	.
8d	.	8r	.	8fL]	ー	8r	.	.	8r	.	8fL]	ー	.
8r	.	8f	.	8c	ニョ	8a	.	.	8cc	pa	8c	ニョ	.
8c	.	8r	.	8c	ポ	8r	.	.	8r	.	8c	ポ	.
8r	.	8f	.	8cJ	ニョ	8a	.	.	8cc	pa	8cJ	ニョ	.
=35	=35	=35	=35	=35	=35	=35	=35	=35	=35	=35	=35	=35	=35
8B-	.	8r	.	8dL	さ	8r	.	.	8r	.	8dL	さ	.
8r	.	4d	.	8f	か	4f	.	.	4b-	pa	8f	か	.
8B-	.	.	.	8b-	な	.	.	.	.	.	8b-	な	.
8r	.	8d	.	8ddJ	の	8f	.	.	8b-	pa	8ddJ	の	.
8A	.	8r	.	4cc	こ	8r	.	.	8r	.	4cc	こ	.
8r	.	8c	.	.	.	8f	.	.	8a	pa	.	.	.
8A	.	8r	.	8r	.	8r	.	.	8r	.	8r	.	.
8r	.	8c	.	8a	あ	8f	.	.	8a	pa	8a	あ	.
=36	=36	=36	=36	=36	=36	=36	=36	=36	=36	=36	=36	=36	=36
8c	.	8r	.	8b-L	お	8r	.	.	8r	.	8b-L	お	.
8r	.	4e	.	8g	い	4g	.	.	4b-	pa	8g	い	.
8c#X	.	.	.	8g	う	.	.	.	.	.	8g	う	.
8r	.	8e	.	8b-J	み	8g	.	.	8b-	pa	8b-J	み	.
8d	.	8r	.	8a	か	8r	.	.	8r	.	8a	か	.
8r	.	8dL	.	4f	ら	8fL	.	.	8aL	lu	4f	ら	.
8cn	.	8e	.	.	.	8g	.	.	8b-	lu	.	.	.
8r	.	8fJ	.	8a	や	8aJ	.	.	8ccJ	lu	8a	や	.
=37	=37	=37	=37	=37	=37	=37	=37	=37	=37	=37	=37	=37	=37
8Bn	.	8r	.	8gL	ー	8r	.	.	8r	.	8gL	ー	.
8r	.	4e	.	8d	っ	4g	.	.	4bn	pa	8d	っ	.
8B-X	.	.	.	8e	て	.	.	.	.	.	8e	て	.
8r	.	8e	.	8fJ	き	8g	.	.	8b-X	pa	8fJ	き	.
8cL	.	4c	.	4g	た	4e	.	.	4cc	pa	4g	た	.
8d	.	.	.	.	.	.	.	.	.	.	.	.	.
8e	.	4r	.	4r	.	4r	.	.	4r	.	4r	.	.
8gJ	.	.	.	.	.	.	.	.	.	.	.	.	.
=38	=38	=38	=38	=38	=38	=38	=38	=38	=38	=38	=38	=38	=38
8f	.	8r	.	4cc	ポー	8r	.	.	8r	.	4cc	ポー	.
8r	.	4f	.	.	.	4a	.	.	4cc	.	.	.	.
8e	.	.	.	8aL	ニョ	.	.	.	.	.	8aL	ニョ	.
8r	.	8f	.	[8fJ	ポ	8a	.	.	8cc	.	[8fJ	ポ	.
8d	.	8r	.	8fL]	ー	8r	.	.	8r	.	8fL]	ー	.
8r	.	8f	.	8c	ニョ	8a	.	.	8cc	.	8c	ニョ	.
8c	.	8r	.	8c	ポ	8r	.	.	8r	.	8c	ポ	.
8r	.	8f	.	8cJ	ニョ	8a	.	.	8cc	.	8cJ	ニョ	.
=39	=39	=39	=39	=39	=39	=39	=39	=39	=39	=39	=39	=39	=39
8B-	.	8r	.	8dL	ふ	8r	.	.	8r	.	8dL	ふ	.
8r	.	4d	.	8f	く	4f	.	.	4b-	.	8f	く	.
8B-	.	.	.	8b-	ら	.	.	.	.	.	8b-	ら	.
8r	.	8d	.	8ddJ	ん	8f	.	.	8b-	.	8ddJ	ん	.
8A	.	8r	.	4cc	だ	8r	.	.	8r	.	4cc	だ	.
8r	.	8c	.	.	.	8f	.	.	8a	.	.	.	.
8A	.	8r	.	8r	.	8r	.	.	8r	.	8r	.	.
8r	.	8c	.	8a	まん	8f	.	.	8a	.	8a	まん	.
=40	=40	=40	=40	=40	=40	=40	=40	=40	=40	=40	=40	=40	=40
8G	.	8d	.	8b-L	ま	8f	.	.	8b-	.	8b-L	ま	.
8r	.	8r	.	8g	る	8r	.	.	8r	.	8g	る	.
8r	.	8r	.	8g	お	8r	.	.	8r	.	8g	お	.
8G	.	8d	.	8b-J	な	8f	.	.	8b-	.	8b-J	な	.
8cL	.	8cL	.	8aL	か	8fL	.	.	8aL	.	8aL	か	.
8cJ	.	8cJ	.	8fJ	の	8fJ	.	.	8aJ	.	8fJ	の	.
4r	.	8r	.	8r	.	8r	.	.	8r	.	8r	.	.
.	.	8r	.	8a	おん	8r	.	.	8r	.	8a	おん	.
=41	=41	=41	=41	=41	=41	=41	=41	=41	=41	=41	=41	=41	=41
8cL	.	8eL	.	8gL	な	8b-L	.	.	8g	.	8gL	な	.
8cJ	.	8gJ	.	8eJ	の	8ccJ	.	.	4e	.	8eJ	の	.
8r	.	8r	.	8r	.	8r	.	.	.	.	8r	.	.
[8f	.	[8a	.	[8f	こ	[8cc	.	.	[8f	.	[8f	こ	.
4f]	.	4a]	.	4f]	.	4cc]	.	.	4f]	.	4f]	.	.
4c	.	4r	.	4r	.	4r	.	.	4r	.	4r	.	.
=42	=42	=42	=42	=42	=42	=42	=42	=42	=42	=42	=42	=42	=42
1F	woo	1c	woo	1r	.	1r	.	.	6f	lu	1r	.	.
.	.	.	.	.	.	.	.	.	12f	.	.	.	.
.	.	.	.	.	.	.	.	.	12fL	.	.	.	.
.	.	.	.	.	.	.	.	.	12c	.	.	.	.
.	.	.	.	.	.	.	.	.	12fJ	.	.	.	.
.	.	.	.	.	.	.	.	.	4g	.	.	.	.
.	.	.	.	.	.	.	.	.	4a	.	.	.	.
=43	=43	=43	=43	=43	=43	=43	=43	=43	=43	=43	=43	=43	=43
1F	.	1c	.	2.r	.	1r	.	.	6b-	.	1r	.	.
.	.	.	.	.	.	.	.	.	12b-	.	.	.	.
.	.	.	.	.	.	.	.	.	12b-L	.	.	.	.
.	.	.	.	.	.	.	.	.	12a	.	.	.	.
.	.	.	.	.	.	.	.	.	12gJ	.	.	.	.
.	.	.	.	.	.	.	.	.	4a	.	.	.	.
.	.	.	.	12fL	lu	.	.	.	4f	.	.	.	.
.	.	.	.	12e	.	.	.	.	.	.	.	.	.
.	.	.	.	12dJ	.	.	.	.	.	.	.	.	.
=44	=44	=44	=44	=44	=44	=44	=44	=44	=44	=44	=44	=44	=44
1G	.	1c	.	2.g	lu	1r	.	.	6g	.	1r	.	.
.	.	.	.	.	.	.	.	.	12g	.	.	.	.
.	.	.	.	.	.	.	.	.	12gL	.	.	.	.
.	.	.	.	.	.	.	.	.	12c	.	.	.	.
.	.	.	.	.	.	.	.	.	12gJ	.	.	.	.
.	.	.	.	.	.	.	.	.	4a	.	.	.	.
.	.	.	.	12cL	.	.	.	.	4b-	.	.	.	.
.	.	.	.	12d	.	.	.	.	.	.	.	.	.
.	.	.	.	12cJ	.	.	.	.	.	.	.	.	.
=45	=45	=45	=45	=45	=45	=45	=45	=45	=45	=45	=45	=45	=45
1F	.	1B-	.	1f	.	2.r	.	.	6cc	.	1r	.	.
.	.	.	.	.	.	.	.	.	12cc	.	.	.	.
.	.	.	.	.	.	.	.	.	12ccL	.	.	.	.
.	.	.	.	.	.	.	.	.	12b-	.	.	.	.
.	.	.	.	.	.	.	.	.	12aJ	.	.	.	.
.	.	.	.	.	.	.	.	.	4b-	.	.	.	.
.	.	.	.	.	.	12b-L	lu	.	4g	.	.	.	.
.	.	.	.	.	.	12a	.	.	.	.	.	.	.
.	.	.	.	.	.	12gJ	.	.	.	.	.	.	.
=46	=46	=46	=46	=46	=46	=46	=46	=46	=46	=46	=46	=46	=46
2F	oh	2A	oh	2f	oh	2a	oh	.	6ff	.	1r	.	.
.	.	.	.	.	.	.	.	.	12ff	.	.	.	.
.	.	.	.	.	.	.	.	.	12ffL	.	.	.	.
.	.	.	.	.	.	.	.	.	12ee	.	.	.	.
.	.	.	.	.	.	.	.	.	12ddJ	.	.	.	.
4F	.	4A	.	4f	.	4a	oh	.	4cc	.	.	.	.
4A	.	4A	.	4f	.	4f	.	.	4f	.	.	.	.
=47	=47	=47	=47	=47	=47	=47	=47	=47	=47	=47	=47	=47	=47
4B-	.	4f	.	4g	.	4g	oh	.	6dd	.	1r	.	.
.	.	.	.	.	.	.	.	.	12dd	.	.	.	.
4c	.	4g	.	4g	.	4cc	oh	.	12ddL	.	.	.	.
.	.	.	.	.	.	.	.	.	12cc	.	.	.	.
.	.	.	.	.	.	.	.	.	12b-J	.	.	.	.
2A	.	2f	.	2f	.	2cc	oh	.	4cc	.	.	.	.
.	.	.	.	.	.	.	.	.	4a	.	.	.	.
=48	=48	=48	=48	=48	=48	=48	=48	=48	=48	=48	=48	=48	=48
1B-	.	1e-X	.	1g	.	1b-	ha	.	6b-	.	1r	.	.
.	.	.	.	.	.	.	.	.	12b-	.	.	.	.
.	.	.	.	.	.	.	.	.	12b-L	.	.	.	.
.	.	.	.	.	.	.	.	.	12a	.	.	.	.
.	.	.	.	.	.	.	.	.	12gJ	.	.	.	.
.	.	.	.	.	.	.	.	.	6a	.	.	.	.
.	.	.	.	.	.	.	.	.	12a	.	.	.	.
.	.	.	.	.	.	.	.	.	12aL	.	.	.	.
.	.	.	.	.	.	.	.	.	12g	.	.	.	.
.	.	.	.	.	.	.	.	.	12fJ	.	.	.	.
=49	=49	=49	=49	=49	=49	=49	=49	=49	=49	=49	=49	=49	=49
2c	.	2f	.	2b-	.	2cc	ah	.	6b-	.	1r	.	.
.	.	.	.	.	.	.	.	.	12g	.	.	.	.
.	.	.	.	.	.	.	.	.	12gL	.	.	.	.
.	.	.	.	.	.	.	.	.	12f	.	.	.	.
.	.	.	.	.	.	.	.	.	12eJ	.	.	.	.
4r	.	4f	.	4b-	.	4cc	ah	.	4d	.	.	.	.
4r	.	4c	.	4b-	.	4cc	ah	.	4c	.	.	.	.
=50	=50	=50	=50	=50	=50	=50	=50	=50	=50	=50	=50	=50	=50
4f	フー	8r	.	8r	.	1r	.	.	1r	.	4f	フー	.
.	.	8fL	.	8aL	tu	.	.	.	.	.	.	.	.
8cL	ク	8f	.	8a	tu	.	.	.	.	.	8cL	ク	.
8fJ	フ	8fJ	.	8aJ	tu	.	.	.	.	.	8fJ	フ	.
4g	ク	2c	.	2e	tu	.	.	.	.	.	4g	ク	.
4r	.	.	.	.	.	.	.	.	.	.	4r	.	.
=51	=51	=51	=51	=51	=51	=51	=51	=51	=51	=51	=51	=51	=51
4g	いい	8r	.	8r	.	1r	.	.	1r	.	4g	いい	.
.	.	8cL	.	8b-L	tu	.	.	.	.	.	.	.	.
8cL	に	8c	.	8b-	tu	.	.	.	.	.	8cL	に	.
8gJ	お	8cJ	.	8b-J	tu	.	.	.	.	.	8gJ	お	.
4a	い	2c	.	2f	tu	.	.	.	.	.	4a	い	.
4r	.	.	.	.	.	.	.	.	.	.	4r	.	.
=52	=52	=52	=52	=52	=52	=52	=52	=52	=52	=52	=52	=52	=52
8.aL	お	4.e-X	.	4.f	ta	1r	.	.	1r	.	8.aL	お	.
16fJk	な	.	.	.	.	.	.	.	.	.	16fJk	な	.
8fL	か	.	.	.	.	.	.	.	.	.	8fL	か	.
8aJ	が	8e-	.	8f	ta	.	.	.	.	.	8aJ	が	.
8b-L	す	8r	.	8r	.	.	.	.	.	.	8b-L	す	.
8ccJ	い	8d	.	8b-	ta	.	.	.	.	.	8ccJ	い	.
4dd	た	8r	.	8r	.	.	.	.	.	.	4dd	た	.
.	.	8d	.	8b-	ta	.	.	.	.	.	.	.	.
=53	=53	=53	=53	=53	=53	=53	=53	=53	=53	=53	=53	=53	=53
8.ccL	た	2d-X	.	2b-	lu	1r	.	.	2r	.	8.ccL	た	.
[16aJk	べ	.	.	.	.	.	.	.	.	.	[16aJk	べ	.
8aL]	ー	.	.	.	.	.	.	.	.	.	8aL]	ー	.
8fJ	ちゃ	.	.	.	.	.	.	.	.	.	8fJ	ちゃ	.
4g	お	2c	.	2g	lu	.	.	.	4cc	lu	4g	お	.
4r	.	.	.	.	.	.	.	.	4g	.	4r	.	.
=54	=54	=54	=54	=54	=54	=54	=54	=54	=54	=54	=54	=54	=54
4f	よー	8r	.	8r	.	1r	.	.	2a	.	4f	よー	.
.	.	8fL	.	8aL	tu	.	.	.	.	.	.	.	.
8cL	く	8f	.	8a	tu	.	.	.	.	.	8cL	く	.
8fJ	よ	8fJ	.	8aJ	tu	.	.	.	.	.	8fJ	よ	.
4g	く	2c	.	2e	tu	.	.	.	4g	.	4g	く	.
4r	.	.	.	.	.	.	.	.	4cc	.	4r	.	.
=55	=55	=55	=55	=55	=55	=55	=55	=55	=55	=55	=55	=55	=55
8.gL	み	8r	.	8r	.	1r	.	.	2b-	.	8.gL	み	.
.	.	8cL	.	8b-L	tu	.	.	.	.	.	.	.	.
16cJk	て	.	.	.	.	.	.	.	.	.	16cJk	て	.
8cL	み	8c	.	8b-	tu	.	.	.	.	.	8cL	み	.
8gJ	よ	8cJ	.	8b-J	tu	.	.	.	.	.	8gJ	よ	.
4a	う	2c	.	2f	tu	.	.	.	2a	.	4a	う	.
4r	.	.	.	.	.	.	.	.	.	.	4r	.	.
=56	=56	=56	=56	=56	=56	=56	=56	=56	=56	=56	=56	=56	=56
8.aL	あ	4.e-X	.	4.f	ta	2a	la	.	2ee-X	la	8.aL	あ	.
16fJk	の	.	.	.	.	.	.	.	.	.	16fJk	の	.
8fL	こ	.	.	.	.	.	.	.	.	.	8fL	こ	.
8aJ	も	8e-	.	8f	ta	.	.	.	.	.	8aJ	も	.
8b-L	き	8r	.	8r	.	4f	.	.	4dd	.	8b-L	き	.
8ccJ	っ	8d	.	8b-	ta	.	.	.	.	.	8ccJ	っ	.
4dd	と	8r	.	8r	.	4f	.	.	4b-	.	4dd	と	.
.	.	8d	.	8b-	ta	.	.	.	.	.	.	.	.
=57	=57	=57	=57	=57	=57	=57	=57	=57	=57	=57	=57	=57	=57
8.ccL	みー	8.cL	tun	2g	.	2g	.	.	2b-	la	8.ccL	みー	.
[16aJk	て	[16cJk	tun	.	.	.	.	.	.	.	[16aJk	て	.
8aL]	ー	8cL]	.	.	.	.	.	.	.	.	8aL]	ー	.
8cJ	い	8cJ	tu	.	.	.	.	.	.	.	8cJ	い	.
4f	る	8r	.	8r	.	2f	.	.	2a	.	4f	る	.
.	.	8fL	lu	8aL	lu	.	.	.	.	.	.	.	.
4r	.	8e	.	8g	.	.	.	.	.	.	4r	.	.
.	.	8dJ	.	8fJ	.	.	.	.	.	.	.	.	.
=58	=58	=58	=58	=58	=58	=58	=58	=58	=58	=58	=58	=58	=58
8r	.	2c	.	4e	tun	8r	.	.	4r	.	8r	.	.
8gL	い	.	.	.	.	4g	tun	.	.	.	8gL	い	.
8g	っ	.	.	4r	.	.	.	.	4b-	tun	8g	っ	.
8gJ	しょ	.	.	.	.	8g	tun	.	.	.	8gJ	しょ	.
4g	に	2c#X	.	4e	tun	8r	.	.	4r	.	4g	に	.
.	.	.	.	.	.	4g	tun	.	.	.	.	.	.
8fL	わ	.	.	4r	.	.	.	.	4b-	tun	8fL	わ	.
8gJ	ら	.	.	.	.	8g	tun	.	.	.	8gJ	ら	.
=59	=59	=59	=59	=59	=59	=59	=59	=59	=59	=59	=59	=59	=59
2a	う	2A	.	4d	tun	8r	.	.	4r	.	2a	う	.
.	.	.	.	.	.	4f	tun	.	.	.	.	.	.
.	.	.	.	4r	.	.	.	.	4a	tun	.	.	.
.	.	.	.	.	.	8f	tun	.	.	.	.	.	.
2cc	と	2c	.	4c	tun	8r	.	.	4r	.	2cc	と	.
.	.	.	.	.	.	4f	tun	.	.	.	.	.	.
.	.	.	.	4r	.	.	.	.	4a	tun	.	.	.
.	.	.	.	.	.	8f	tun	.	.	.	.	.	.
=60	=60	=60	=60	=60	=60	=60	=60	=60	=60	=60	=60	=60	=60
8r	.	2G	.	4B-	.	8r	.	.	4r	.	8r	.	.
8gL	ホ	.	.	.	.	4f	.	.	.	.	8gL	ホ	.
8g	ッ	.	.	4r	.	.	.	.	4b-	.	8g	ッ	.
8aJ	ペ	.	.	.	.	8f	.	.	.	.	8aJ	ペ	.
4g	が	2B-	.	4d-X	.	8r	.	.	4r	.	4g	が	.
.	.	.	.	.	.	4f	.	.	.	.	.	.	.
8fL	あ	.	.	4r	.	.	.	.	4dd-X	.	8fL	あ	.
8d-XJ	つ	.	.	.	.	8f	.	.	.	.	8dJ	つ	.
=61	=61	=61	=61	=61	=61	=61	=61	=61	=61	=61	=61	=61	=61
4c	い	2A	.	4c	.	8r	.	.	4r	.	4c	い	.
.	.	.	.	.	.	4f	.	.	.	.	.	.	.
2a	よ	.	.	4r	.	.	.	.	4cc	.	2a	よ	.
.	.	.	.	.	.	8r	.	.	.	.	.	.	.
.	.	2A	.	4r	.	4r	.	.	4r	.	.	.	.
4r	.	.	.	4e	ha	4g	ha	.	4cc#X	ha	4r	.	.
=62	=62	=62	=62	=62	=62	=62	=62	=62	=62	=62	=62	=62	=62
8.fL	パー	4d	pa	8.fL	.	4a	pa	.	4dd	pa	8.fL	パー	.
16fJk	ク	.	.	16fJk	.	.	.	.	.	.	16fJk	ク	.
8fL	パ	8r	.	8fL	.	8r	.	.	8r	.	8fL	パ	.
8fJ	ク	8d	.	8fJ	.	8a	.	.	8dd	.	8fJ	ク	.
8ddL	チュッ	8cL	.	8eL	.	8aL	.	.	8ddL	.	8ddL	チュッ	.
8ccJ	ギュッ！	8cJ	.	8eJ	.	8aJ	.	.	8ccJ	.	8ccJ	ギュッ！	.
4r	.	4r	.	4r	.	4r	.	.	4r	.	4r	.	.
=63	=63	=63	=63	=63	=63	=63	=63	=63	=63	=63	=63	=63	=63
8.dL	パー	4B-	.	8.dL	.	4f	.	.	4b-	.	8.dL	パー	.
16dJk	ク	.	.	16dJk	.	.	.	.	.	.	16dJk	ク	.
8dL	パ	8r	.	8dL	.	8r	.	.	8r	.	8dL	パ	.
8dJ	ク	8B-	.	8dJ	.	8f	.	.	8b-	.	8dJ	ク	.
8ccL	チュッ	8B-L	.	8fL	.	8d-XL	.	.	8b-L	.	8ccL	チュッ	.
8b-J	ギュッ！	8B-J	.	8fJ	.	8d-J	.	.	8b-J	.	8b-J	ギュッ！	.
4r	.	4r	.	4r	.	4r	.	.	4r	.	4r	.	.
=64	=64	=64	=64	=64	=64	=64	=64	=64	=64	=64	=64	=64	=64
4r	.	2f	tun	8r	.	8r	.	.	4r	.	4r	.	.
.	.	.	.	8fL	.	8aL	tun	.	.	.	.	.	.
4a	あ	.	.	8a	.	8cc	tun	.	4r	.	4a	あ	.
.	.	.	.	8fJ	.	8aJ	tun	.	.	.	.	.	.
4b-	の	2e	tun	8r	.	8r	.	.	4b-	lu	4b-	の	.
.	.	.	.	8eL	.	8gL	tun	.	.	.	.	.	.
4cc	こ	.	.	8a	.	8cc	tun	.	4f	lu	4cc	こ	.
.	.	.	.	8eJ	.	8gJ	tun	.	.	.	.	.	.
=65	=65	=65	=65	=65	=65	=65	=65	=65	=65	=65	=65	=65	=65
4f	が	2d	.	8r	.	8r	.	.	2dd	.	4f	が	.
.	.	.	.	8dL	.	8aL	.	.	.	.	.	.	.
4f	だ	.	.	8f	.	8cc	.	.	.	.	4f	だ	.
.	.	.	.	8dJ	.	8aJ	.	.	.	.	.	.	.
4g	い	2c	.	8r	.	8r	.	.	2cc	.	4g	い	.
.	.	.	.	8cL	.	8aL	.	.	.	.	.	.	.
4a	す	.	.	8f	.	8cc	.	.	.	.	4a	す	.
.	.	.	.	8cJ	.	8aJ	.	.	.	.	.	.	.
=66	=66	=66	=66	=66	=66	=66	=66	=66	=66	=66	=66	=66	=66
2.g	き	8B-L	.	2.d	woo	2.g	woo	.	2.b-	woo	2.g	き	.
.	.	8f	.	.	.	.	.	.	.	.	.	.	.
.	.	8g	.	.	.	.	.	.	.	.	.	.	.
.	.	8b-J	.	.	.	.	.	.	.	.	.	.	.
.	.	8b-	.	.	.	.	.	.	.	.	.	.	.
.	.	4cc	.	.	.	.	.	.	.	.	.	.	.
4r	.	.	.	4r	.	8r	.	.	8r	.	4r	.	.
.	.	8g	.	.	.	8r	.	.	8r	.	.	.	.
=67	=67	=67	=67	=67	=67	=67	=67	=67	=67	=67	=67	=67	=67
1r	.	8c	da	8f	da	8cL	ま	.	8b-	da	1r	.	.
.	.	4c	da	4f	da	8f	っ	.	4b-	da	.	.	.
.	.	.	.	.	.	8f	か	.	.	.	.	.	.
.	.	4c	da	4f	da	8gJ	っ	.	4b-	da	.	.	.
.	.	.	.	.	.	4g	か	.	.	.	.	.	.
.	.	4c	da	4f	da	.	.	.	4b-	da	.	.	.
.	.	.	.	.	.	4a	の	.	.	.	.	.	.
.	.	8c	da	8e	da	.	.	.	8b-	da	.	.	.
=68	=68	=68	=68	=68	=68	=68	=68	=68	=68	=68	=68	=68	=68
8f	.	8r	.	8r	.	4cc	.	ポー	8r	.	4cc	.	ポー
8r	.	4f	pa	4a	pa	.	.	.	4cc	pa	.	.	.
8e	.	.	.	.	.	8aL	.	ニョ	.	.	8aL	.	ニョ
8r	.	8f	.	8a	.	[8fJ	.	ポ	8cc	.	[8fJ	.	ポ
8d	.	8r	.	8r	.	8fL]	.	ー	8r	.	8fL]	.	ー
8r	.	8f	.	8a	.	8c	.	ニョ	8cc	.	8c	.	ニョ
8c	.	8r	.	8r	.	8c	.	ポ	8r	.	8c	.	ポ
8r	.	8f	.	8a	.	8cJ	.	ニョ	8cc	.	8cJ	.	ニョ
=69	=69	=69	=69	=69	=69	=69	=69	=69	=69	=69	=69	=69	=69
8B-	.	8r	.	8r	.	8dL	.	さ	8r	.	8dL	.	さ
8r	.	4d	.	4f	.	8f	.	か	4b-	.	8f	.	か
8B-	.	.	.	.	.	8b-	.	な	.	.	8b-	.	な
8r	.	8d	.	8f	.	8ddJ	.	の	8b-	.	8ddJ	.	の
8A	.	8r	.	8r	.	4cc	.	こ	8r	.	4cc	.	こ
8r	.	8c	.	8f	.	.	.	.	8a	.	.	.	.
8A	.	8r	.	8r	.	8r	.	.	8r	.	8r	.	.
8r	.	8c	.	8f	.	8a	.	が	8a	.	8a	.	が
=70	=70	=70	=70	=70	=70	=70	=70	=70	=70	=70	=70	=70	=70
8c	.	8r	.	8r	.	8b-L	.	け	8r	.	8b-L	.	け
8r	.	4e	.	4g	.	8g	.	の	4b-	.	8g	.	の
8c#X	.	.	.	.	.	8g	.	.	.	.	8g	.	.
8r	.	8e	.	8g	.	8b-J	.	う	8b-	.	8b-J	.	う
8d	.	8r	.	8r	.	8a	.	え	8r	.	8a	.	え
8r	.	8dL	.	8fL	.	4f	.	に	8aL	.	4f	.	に
8cn	.	8e	.	8g	.	.	.	.	8b-	.	.	.	.
8r	.	8fJ	.	8aJ	.	8a	.	や	8ccJ	.	8a	.	や
=71	=71	=71	=71	=71	=71	=71	=71	=71	=71	=71	=71	=71	=71
8Bn	.	8r	.	8r	.	8gL	.	ー	8r	.	8gL	.	ー
8r	.	4e	.	4g	.	8d	.	っ	4bn	.	8d	.	っ
8B-X	.	.	.	.	.	8e	.	て	.	.	8e	.	て
8r	.	8e	.	8g	.	8fJ	.	き	8b-X	.	8fJ	.	き
8cL	.	4c	.	4e	.	4g	.	た	4cc	.	4g	.	た
8d	.	.	.	.	.	.	.	.	.	.	.	.	.
8e	.	4r	.	4r	.	4r	.	.	4r	.	4r	.	.
8gJ	.	.	.	.	.	.	.	.	.	.	.	.	.
=72	=72	=72	=72	=72	=72	=72	=72	=72	=72	=72	=72	=72	=72
8f	.	8r	.	8r	.	4cc	.	ポー	8r	.	4cc	.	ポー
8r	.	4f	.	4a	.	.	.	.	4cc	.	.	.	.
8e	.	.	.	.	.	8aL	.	ニョ	.	.	8aL	.	ニョ
8r	.	8f	.	8a	.	[8fJ	.	ポ	8cc	.	[8fJ	.	ポ
8d	.	8r	.	8r	.	8fL]	.	ー	8r	.	8fL]	.	ー
8r	.	8f	.	8a	.	8c	.	ニョ	8cc	.	8c	.	ニョ
8c	.	8r	.	8r	.	8c	.	ポ	8r	.	8c	.	ポ
8r	.	8f	.	8a	.	8cJ	.	ニョ	8cc	.	8cJ	.	ニョ
=73	=73	=73	=73	=73	=73	=73	=73	=73	=73	=73	=73	=73	=73
8B-	.	8r	.	8r	.	8dL	.	お	8r	.	8dL	.	お
8r	.	4d	.	4f	.	8f	.	ん	4b-	.	8f	.	ん
8B-	.	.	.	.	.	8b-	.	な	.	.	8b-	.	な
8r	.	8d	.	8f	.	8ddJ	.	の	8b-	.	8ddJ	.	の
8A	.	8r	.	8r	.	4cc	.	こ	8r	.	4cc	.	こ
8r	.	8c	.	8f	.	.	.	.	8a	.	.	.	.
8A	.	8r	.	8r	.	8r	.	.	8r	.	8r	.	.
8r	.	8c	.	8f	.	8a	.	まん	8a	.	8a	.	まん
=74	=74	=74	=74	=74	=74	=74	=74	=74	=74	=74	=74	=74	=74
8G	.	8d	.	8f	.	8b-L	.	ま	8b-	.	8b-L	.	ま
8r	.	8r	.	8r	.	8g	.	る	8r	.	8g	.	る
8r	.	8r	.	8r	.	8g	.	お	8r	.	8g	.	お
8G	.	8d	.	8f	.	8b-J	.	な	8b-	.	8b-J	.	な
8cL	.	8cL	.	8fL	.	8aL	.	か	8aL	.	8aL	.	か
8cJ	.	8cJ	.	8fJ	.	8fJ	.	の	8aJ	.	8fJ	.	の
8r	.	8r	.	8r	.	8r	.	.	8r	.	8r	.	.
8r	.	8r	.	8r	.	8a	.	げん	8r	.	8a	.	げん
=75	=75	=75	=75	=75	=75	=75	=75	=75	=75	=75	=75	=75	=75
8cL	.	8eL	.	8gL	.	8g	.	き	8b-L	.	8g	.	き
8cJ	.	8gJ	.	8b-J	.	4e	.	な	8ccJ	.	4e	.	な
8r	.	8r	.	8r	.	.	.	.	8r	.	.	.	.
[8f	.	[8f	.	[8a	.	[8f	.	こ	[8cc	.	[8f	.	こ
4f]	.	4f]	.	4a]	.	4f]	.	.	4cc]	.	4f]	.	.
4c	.	4r	.	4r	.	4r	.	.	4r	.	4r	.	.
=76	=76	=76	=76	=76	=76	=76	=76	=76	=76	=76	=76	=76	=76
8F	.	8c	.	8f	.	8a	da	.	8ccL	pa	1r	.	.
8r	.	8r	.	8r	.	8r	.	.	8a	la	.	.	.
8r	.	8r	.	8r	.	8r	.	.	8a	ta	.	.	.
8F	.	8c	.	8f	.	8a	da	.	8fJ	la	.	.	.
8r	.	8r	.	8r	.	8r	.	.	8fL	ta	.	.	.
4F	.	4c	.	4f	.	4a	da	.	8c	la	.	.	.
.	.	.	.	.	.	.	.	.	8c	ta	.	.	.
8r	.	8r	.	8r	.	8r	.	.	8AJ	la	.	.	.
=77	=77	=77	=77	=77	=77	=77	=77	=77	=77	=77	=77	=77	=77
8F	.	8d-X	.	8f	.	8b-	da	.	8dd-XL	.	1r	.	.
8r	.	8r	.	8r	.	8r	.	.	8b-	.	.	.	.
8r	.	8r	.	8r	.	8r	.	.	8b-	.	.	.	.
8F	.	8d-	.	8f	.	8b-	da	.	8fJ	.	.	.	.
8r	.	8r	.	8r	.	8r	.	.	8fL	.	.	.	.
4F	.	4d-	.	4f	.	4b-	da	.	8d-X	.	.	.	.
.	.	.	.	.	.	.	.	.	8d-	.	.	.	.
8r	.	8r	.	8r	.	8r	.	.	8B-J	.	.	.	.
=78	=78	=78	=78	=78	=78	=78	=78	=78	=78	=78	=78	=78	=78
8r	.	8r	.	8r	.	8r	.	.	8cL	.	1r	.	.
8FL	.	8cL	.	8fL	.	8aL	pa	.	8f	.	.	.	.
8F	.	8c	.	8f	.	8a	pa	.	8f	.	.	.	.
8FJ	.	8cJ	.	8fJ	.	8aJ	pa	.	8gJ	.	.	.	.
8F	.	8c	.	8f	.	8a	pa	.	8gL	.	.	.	.
4F	.	4c	.	4f	.	4a	pa	.	8a	.	.	.	.
.	.	.	.	.	.	.	.	.	8a	.	.	.	.
8F	.	8c	.	8f	.	8a	pa	.	8ccJ	.	.	.	.
=79	=79	=79	=79	=79	=79	=79	=79	=79	=79	=79	=79	=79	=79
8r	.	8r	.	8r	.	8r	.	.	8cL	.	1r	.	.
8GL	.	8cL	.	8eL	.	8b-L	.	.	8g	.	.	.	.
8G	.	8c	.	8e	.	8b-	.	.	8g	.	.	.	.
8GJ	.	8cJ	.	8eJ	.	8b-J	.	.	8b-J	.	.	.	.
8G	.	8c	.	8e	.	8b-	.	.	8b-L	.	.	.	.
4G	.	4c	.	4e	.	4b-	.	.	8cc	.	.	.	.
.	.	.	.	.	.	.	.	.	8cc	.	.	.	.
8G	.	8c	.	8e	.	8b-	.	.	8eeJ	.	.	.	.
=80	=80	=80	=80	=80	=80	=80	=80	=80	=80	=80	=80	=80	=80
8r	.	8r	.	8r	.	8r	.	.	8r	.	1r	.	.
4c	.	4c	.	4c	.	4cc	.	.	4cc	pa	.	.	.
16cLL	.	16cLL	.	16cLL	.	16ccLL	.	.	16ccLL	pa	.	.	.
16cJJ	.	16cJJ	.	16cJJ	.	16ccJJ	.	.	16ccJJ	la	.	.	.
8cL	.	8dL	.	8fL	.	8b-L	.	.	8ddL	pa	.	.	.
8B-	.	8d	.	8f	.	8b-	.	.	8dd	pa	.	.	.
8A	.	8e	.	8g	.	8cc	.	.	8ee	pa	.	.	.
8GJ	.	8eJ	.	8gJ	.	8ccJ	.	.	8eeJ	pa	.	.	.
=81	=81	=81	=81	=81	=81	=81	=81	=81	=81	=81	=81	=81	=81
8F	.	8f	.	8f	.	8ff	.	.	8ff	pa	1r	.	.
8r	.	8r	.	8r	.	8r	.	.	8r	.	.	.	.
4F	.	4f	.	4f	.	4f	.	.	4f	pa	.	.	.
2r	.	2r	.	2r	.	2r	.	.	2r	.	.	.	.
==	==	==	==	==	==	==	==	==	==	==	==	==	==
*-	*-	*-	*-	*-	*-	*-	*-	*-	*-	*-	*-	*-	*-
